src/images/retention-2.svg

<svg fill="none" viewBox="0 0 553 519"><rect width="490.504" height="443" fill="#35416B" rx="61.865"/><path fill="#F78A01" fill-rule="evenodd" d="M550.668 181.232L92.791 234.31l.292 284.101 66.236-9.307-1.526-32.942 55.742-8.529-1.842-33.842 57.512-7.072-1.526-34.748 57.414-7.445-1.051-32.838 56.75-6.671-.419-36.238 56.999-6.539.339-35.752 55.755-6.346.556-35.214 57.471-6.271-.825-37.425z" clip-rule="evenodd"/><path fill="#FFAE48" fill-rule="evenodd" d="M552.435 181.482l-59.105-27.893-457.741 53.423L93.2 235.508l459.235-54.026z" clip-rule="evenodd"/><path fill="#E17D00" fill-rule="evenodd" d="M92.97 235.734l-56.462-28.387-.269 281.747 57.531 28.388-.8-281.748z" clip-rule="evenodd"/><path fill="#FFE5B0" fill-rule="evenodd" d="M324.108 316.394l.203 30.938 52.759-6.054-.296-31.697-52.666 6.813z" clip-rule="evenodd" opacity=".5"/><path fill="#FFD98C" fill-rule="evenodd" d="M267.189 324.017l.203 30.943 52.759-6.058-.296-31.693-52.666 6.808z" clip-rule="evenodd" opacity=".5"/><path fill="#FFCA61" fill-rule="evenodd" d="M210.911 332.344l.202 30.943 52.76-6.059-.297-31.697-52.665 6.813z" clip-rule="evenodd" opacity=".5"/><path fill="#FFBD3A" fill-rule="evenodd" d="M154.604 340.151l.203 30.934 52.759-6.054-.297-31.697-52.665 6.817z" clip-rule="evenodd" opacity=".5"/><path fill="#FFB218" fill-rule="evenodd" d="M97.911 348.148l.203 30.942 52.759-6.058-.259-31.697-52.703 6.813z" clip-rule="evenodd" opacity=".5"/><path fill="#FFE5B0" fill-rule="evenodd" d="M324.786 281.033l.198 30.938 52.76-6.058-.297-31.693-52.661 6.813z" clip-rule="evenodd" opacity=".5"/><path fill="#FFD98C" fill-rule="evenodd" d="M267.863 288.662l.202 30.938 52.76-6.059-.297-31.692-52.665 6.813z" clip-rule="evenodd" opacity=".5"/><path fill="#FFCA61" fill-rule="evenodd" d="M211.594 296.988l.202 30.938 52.76-6.058-.297-31.693-52.665 6.813z" clip-rule="evenodd" opacity=".5"/><path fill="#FFBD3A" fill-rule="evenodd" d="M155.282 304.796l.203 30.938 52.759-6.059-.282-31.669-52.68 6.79z" clip-rule="evenodd" opacity=".5"/><path fill="#FFB218" fill-rule="evenodd" d="M98.585 312.792l.212 30.947 52.759-6.053-.292-31.698-52.68 6.804z" clip-rule="evenodd" opacity=".5"/><path fill="#FFF4DE" fill-rule="evenodd" d="M437.8 231.665l.203 30.938 52.76-6.053-.297-31.697-52.666 6.812z" clip-rule="evenodd" opacity=".5"/><path fill="#fff" fill-rule="evenodd" d="M494.964 190.784l.203 30.938 52.76-6.054-.297-31.697-52.666 6.813z" clip-rule="evenodd" opacity=".5"/><path fill="#FFF4DE" fill-rule="evenodd" d="M438.003 197.748l.203 30.942 52.759-6.058-.297-31.697-52.665 6.813z" clip-rule="evenodd" opacity=".5"/><path fill="#FFECC6" fill-rule="evenodd" d="M381.362 205.456l.202 30.943 52.76-6.059-.297-31.697-52.665 6.813z" clip-rule="evenodd" opacity=".5"/><path fill="#FFE5B0" fill-rule="evenodd" d="M324.735 213.188l.202 30.938 52.76-6.053-.297-31.698-52.665 6.813z" clip-rule="evenodd" opacity=".5"/><path fill="#FFD98C" fill-rule="evenodd" d="M267.811 220.803l.203 30.942 52.759-6.058-.297-31.697-52.665 6.813z" clip-rule="evenodd" opacity=".5"/><path fill="#FFCA61" fill-rule="evenodd" d="M211.542 229.129l.203 30.938 52.759-6.054-.292-31.697-52.67 6.813z" clip-rule="evenodd" opacity=".5"/><path fill="#FFBD3A" fill-rule="evenodd" d="M155.231 236.936l.202 30.938 52.76-6.053-.283-31.707-52.679 6.822z" clip-rule="evenodd" opacity=".5"/><path fill="#FFB218" fill-rule="evenodd" d="M98.533 244.933l.202 30.938 52.76-6.054-.278-31.688-52.684 6.804z" clip-rule="evenodd" opacity=".5"/><path fill="#FFECC6" fill-rule="evenodd" d="M380.966 240.015l.203 30.938 52.759-6.054-.297-31.697-52.665 6.813zm.339 34.418l.203 30.938 52.759-6.054-.296-31.697-52.666 6.813z" clip-rule="evenodd" opacity=".5"/><path fill="#FFE5B0" fill-rule="evenodd" d="M324.74 247.087l.202 30.938 52.76-6.058-.297-31.693-52.665 6.813z" clip-rule="evenodd" opacity=".5"/><path fill="#FFD98C" fill-rule="evenodd" d="M267.82 254.711l.203 30.943 52.759-6.059-.296-31.697-52.666 6.813z" clip-rule="evenodd" opacity=".5"/><path fill="#FFCA61" fill-rule="evenodd" d="M211.547 263.037l.202 30.938 52.76-6.054-.297-31.697-52.665 6.813z" clip-rule="evenodd" opacity=".5"/><path fill="#FFBD3A" fill-rule="evenodd" d="M155.235 270.845l.203 30.938 52.759-6.054-.296-31.697-52.666 6.813z" clip-rule="evenodd" opacity=".5"/><path fill="#FFB218" fill-rule="evenodd" d="M98.538 278.841l.202 30.938 52.76-6.054-.297-31.697-52.665 6.813z" clip-rule="evenodd" opacity=".5"/><path fill="#FFD98C" fill-rule="evenodd" d="M266.869 358.081l.914 29.948 52.948-6.845-1.098-29.793-52.764 6.69z" clip-rule="evenodd" opacity=".5"/><path fill="#FFCA61" fill-rule="evenodd" d="M210.6 366.408l.914 29.948 52.948-6.846-1.098-29.793-52.764 6.691z" clip-rule="evenodd" opacity=".5"/><path fill="#FFBD3A" fill-rule="evenodd" d="M154.284 374.215l.914 29.948 52.948-6.846-1.098-29.792-52.764 6.69z" clip-rule="evenodd" opacity=".5"/><path fill="#FFB218" fill-rule="evenodd" d="M97.586 382.211l.919 29.948 52.948-6.845-1.098-29.793-52.769 6.69z" clip-rule="evenodd" opacity=".5"/><path fill="#FFCA61" fill-rule="evenodd" d="M210.911 399.779l.914 29.948 52.948-6.846-1.103-29.788-52.759 6.686z" clip-rule="evenodd" opacity=".5"/><path fill="#FFBD3A" fill-rule="evenodd" d="M154.58 407.586l.943 29.948 52.948-6.846-1.098-29.792-52.793 6.69z" clip-rule="evenodd" opacity=".5"/><path fill="#FFB218" fill-rule="evenodd" d="M97.888 415.582l.909 29.948 52.943-6.841-1.098-29.792-52.754 6.685z" clip-rule="evenodd" opacity=".5"/><path fill="#FFBD3A" fill-rule="evenodd" d="M154.962 440.339l.919 29.948 52.943-6.845-1.093-29.793-52.769 6.69z" clip-rule="evenodd" opacity=".5"/><path fill="#FFB218" fill-rule="evenodd" d="M98.269 448.336l.914 29.948 52.948-6.846-1.098-29.793-52.764 6.691zm.952 33.13l.913 29.948 52.948-6.846-1.097-29.787-52.764 6.685z" clip-rule="evenodd" opacity=".5"/><path fill="#5D8ECC" fill-rule="evenodd" d="M101.522 125.849l.483 82.586 30.553 14.549-.78-81.475-30.256-15.66zm142.235-18.071l.484 82.585 30.553 14.549-.78-81.475-30.257-15.659zm138.62-14.057l.483 82.585 30.554 14.549-.776-81.475-30.261-15.66z" clip-rule="evenodd"/><path fill="#769FD1" fill-rule="evenodd" d="M131.517 141.604l70.926-8.509.737 82.695-70.857 7.25-.806-81.436zm142.24-18.071l70.922-8.509.723 82.694-70.843 7.251-.802-81.436zm138.62-14.057l70.935-8.509.723 82.694-70.865 7.246-.793-81.431z" clip-rule="evenodd"/><path fill="#9ABCE6" fill-rule="evenodd" d="M101.495 126.115l30.061 15.472 70.604-8.483-26.366-14.971-74.299 7.982zm142.236-18.072l30.061 15.472 70.604-8.483-26.362-14.975-74.303 7.986zm138.624-14.057l30.061 15.472 70.604-8.482L456.658 86l-74.303 7.986z" clip-rule="evenodd"/><path fill="#fff" fill-rule="evenodd" d="M148.205 147.691a9.027 9.027 0 00-8.132 9.063l.372 42.189c.047 5.37 4.744 9.511 10.078 8.886l37.404-4.384a9.026 9.026 0 007.976-9.073l-.495-41.52c-.063-5.296-4.652-9.4-9.922-8.875l-37.281 3.714zm141.017-17.99a9.027 9.027 0 00-8.148 9.065l.379 42.199c.048 5.362 4.732 9.5 10.06 8.887l38.393-4.421a9.028 9.028 0 007.994-9.079l-.507-41.52c-.064-5.289-4.641-9.39-9.906-8.875l-38.265 3.744zm141.013-15.158a9.028 9.028 0 00-8.16 9.068l.367 40.37c.049 5.356 4.724 9.492 10.047 8.887l37.403-4.251a9.028 9.028 0 008.008-9.081l-.489-39.718c-.065-5.284-4.635-9.382-9.894-8.874l-37.282 3.599z" clip-rule="evenodd"/><path fill="#000" d="M180.448 162.141l-6.971 2.389a.295.295 0 00-.065.525l2.585 1.676-6.386 9.85-4.436-2.873a.587.587 0 00-.812.173l-9.089 14.025a.297.297 0 00.087.406l1.963 1.279a.296.296 0 00.406-.087l7.818-12.056 4.433 2.873a.59.59 0 00.812-.173l7.67-11.822 2.584 1.676a.296.296 0 00.312.004.29.29 0 00.141-.277l-.665-7.34a.29.29 0 00-.387-.248zm142.655-10.845l-8.317.199-.088-3.671a1.039 1.039 0 00-1.065-1.015l-13.256.318-.031-1.3a.262.262 0 00-.267-.254l-1.819.044a.26.26 0 00-.254.266l.611 25.473a.26.26 0 00.266.253l1.819-.043a.26.26 0 00.254-.266l-.205-8.578 8.057-.193.088 3.671a1.04 1.04 0 001.065 1.015l13.516-.324a1.039 1.039 0 001.015-1.064l-.324-13.517a1.039 1.039 0 00-1.065-1.014zm-22.409 9.087l-.261-10.917 11.956-.287.262 10.917-11.957.287zm21.427 4.2l-10.917.262-.056-2.372 3.639-.087a.262.262 0 00.253-.267l-.198-8.285 7.018-.168.261 10.917zM461.037 129a.91.91 0 00-.348.069l-17.29 6.947h-4.919a.49.49 0 00-.48.498v8.969a.49.49 0 00.48.498h3.051a3.598 3.598 0 00-.171 1.092 3.595 3.595 0 003.599 3.584 3.607 3.607 0 003.477-2.651l12.256 4.925a.97.97 0 00.348.069c.507 0 .96-.426.96-.996v-22.008c-.003-.57-.453-.996-.963-.996zm-16.078 19.507c-.795 0-1.44-.642-1.44-1.434 0-.336.117-.657.33-.912l2.547 1.023a1.444 1.444 0 01-1.437 1.323zm14.878 1.751l-15.634-6.281-.387-.156h-3.656v-5.645h3.656l.387-.156 15.634-6.281v18.519z"/></svg>

<svg xmlns="http://www.w3.org/2000/svg" width="553" height="519" fill="none" viewBox="0 0 553 519"><rect width="490.504" height="443" fill="#35416B" rx="61.865"/><path fill="#F78A01" fill-rule="evenodd" d="M550.668 181.232L92.7906 234.31L93.0826 518.411L159.319 509.104L157.793 476.162L213.535 467.633L211.693 433.791L269.205 426.719L267.679 391.971L325.093 384.526L324.042 351.688L380.792 345.017L380.373 308.779L437.372 302.24L437.711 266.488L493.466 260.142L494.022 224.928L551.493 218.657L550.668 181.232Z" clip-rule="evenodd"/><path fill="#FFAE48" fill-rule="evenodd" d="M552.435 181.482L493.33 153.589L35.5889 207.012L93.2004 235.508L552.435 181.482Z" clip-rule="evenodd"/><path fill="#E17D00" fill-rule="evenodd" d="M92.9696 235.734L36.5075 207.347L36.239 489.094L93.7704 517.482L92.9696 235.734Z" clip-rule="evenodd"/><path fill="#FFE5B0" fill-rule="evenodd" d="M324.108 316.394L324.311 347.332L377.07 341.278L376.774 309.581L324.108 316.394Z" clip-rule="evenodd" opacity=".5"/><path fill="#FFD98C" fill-rule="evenodd" d="M267.189 324.017L267.392 354.96L320.151 348.902L319.855 317.209L267.189 324.017Z" clip-rule="evenodd" opacity=".5"/><path fill="#FFCA61" fill-rule="evenodd" d="M210.911 332.344L211.113 363.287L263.873 357.228L263.576 325.531L210.911 332.344Z" clip-rule="evenodd" opacity=".5"/><path fill="#FFBD3A" fill-rule="evenodd" d="M154.604 340.151L154.807 371.085L207.566 365.031L207.269 333.334L154.604 340.151Z" clip-rule="evenodd" opacity=".5"/><path fill="#FFB218" fill-rule="evenodd" d="M97.911 348.148L98.1136 379.09L150.873 373.032L150.614 341.335L97.911 348.148Z" clip-rule="evenodd" opacity=".5"/><path fill="#FFE5B0" fill-rule="evenodd" d="M324.786 281.033L324.984 311.971L377.744 305.913L377.447 274.22L324.786 281.033Z" clip-rule="evenodd" opacity=".5"/><path fill="#FFD98C" fill-rule="evenodd" d="M267.863 288.662L268.065 319.6L320.825 313.541L320.528 281.849L267.863 288.662Z" clip-rule="evenodd" opacity=".5"/><path fill="#FFCA61" fill-rule="evenodd" d="M211.594 296.988L211.796 327.926L264.556 321.868L264.259 290.175L211.594 296.988Z" clip-rule="evenodd" opacity=".5"/><path fill="#FFBD3A" fill-rule="evenodd" d="M155.282 304.796L155.485 335.734L208.244 329.675L207.962 298.006L155.282 304.796Z" clip-rule="evenodd" opacity=".5"/><path fill="#FFB218" fill-rule="evenodd" d="M98.5847 312.792L98.7966 343.739L151.556 337.686L151.264 305.988L98.5847 312.792Z" clip-rule="evenodd" opacity=".5"/><path fill="#FFF4DE" fill-rule="evenodd" d="M437.8 231.665L438.003 262.603L490.763 256.55L490.466 224.853L437.8 231.665Z" clip-rule="evenodd" opacity=".5"/><path fill="#fff" fill-rule="evenodd" d="M494.964 190.784L495.167 221.722L547.927 215.668L547.63 183.971L494.964 190.784Z" clip-rule="evenodd" opacity=".5"/><path fill="#FFF4DE" fill-rule="evenodd" d="M438.003 197.748L438.206 228.69L490.965 222.632L490.668 190.935L438.003 197.748Z" clip-rule="evenodd" opacity=".5"/><path fill="#FFECC6" fill-rule="evenodd" d="M381.362 205.456L381.564 236.399L434.324 230.34L434.027 198.643L381.362 205.456Z" clip-rule="evenodd" opacity=".5"/><path fill="#FFE5B0" fill-rule="evenodd" d="M324.735 213.188L324.937 244.126L377.697 238.073L377.4 206.375L324.735 213.188Z" clip-rule="evenodd" opacity=".5"/><path fill="#FFD98C" fill-rule="evenodd" d="M267.811 220.803L268.014 251.745L320.773 245.687L320.476 213.99L267.811 220.803Z" clip-rule="evenodd" opacity=".5"/><path fill="#FFCA61" fill-rule="evenodd" d="M211.542 229.129L211.745 260.067L264.504 254.013L264.212 222.316L211.542 229.129Z" clip-rule="evenodd" opacity=".5"/><path fill="#FFBD3A" fill-rule="evenodd" d="M155.231 236.936L155.433 267.874L208.193 261.821L207.91 230.114L155.231 236.936Z" clip-rule="evenodd" opacity=".5"/><path fill="#FFB218" fill-rule="evenodd" d="M98.5328 244.933L98.7354 275.871L151.495 269.817L151.217 238.129L98.5328 244.933Z" clip-rule="evenodd" opacity=".5"/><path fill="#FFECC6" fill-rule="evenodd" d="M380.966 240.015L381.169 270.953L433.928 264.899L433.631 233.202L380.966 240.015Z" clip-rule="evenodd" opacity=".5"/><path fill="#FFECC6" fill-rule="evenodd" d="M381.305 274.433L381.508 305.371L434.267 299.317L433.971 267.62L381.305 274.433Z" clip-rule="evenodd" opacity=".5"/><path fill="#FFE5B0" fill-rule="evenodd" d="M324.74 247.087L324.942 278.025L377.702 271.967L377.405 240.274L324.74 247.087Z" clip-rule="evenodd" opacity=".5"/><path fill="#FFD98C" fill-rule="evenodd" d="M267.82 254.711L268.023 285.654L320.782 279.595L320.486 247.898L267.82 254.711Z" clip-rule="evenodd" opacity=".5"/><path fill="#FFCA61" fill-rule="evenodd" d="M211.547 263.037L211.749 293.975L264.509 287.921L264.212 256.224L211.547 263.037Z" clip-rule="evenodd" opacity=".5"/><path fill="#FFBD3A" fill-rule="evenodd" d="M155.235 270.845L155.438 301.783L208.197 295.729L207.901 264.032L155.235 270.845Z" clip-rule="evenodd" opacity=".5"/><path fill="#FFB218" fill-rule="evenodd" d="M98.5376 278.841L98.7402 309.779L151.5 303.725L151.203 272.028L98.5376 278.841Z" clip-rule="evenodd" opacity=".5"/><path fill="#FFD98C" fill-rule="evenodd" d="M266.869 358.081L267.783 388.029L320.731 381.184L319.633 351.391L266.869 358.081Z" clip-rule="evenodd" opacity=".5"/><path fill="#FFCA61" fill-rule="evenodd" d="M210.6 366.408L211.514 396.356L264.462 389.51L263.364 359.717L210.6 366.408Z" clip-rule="evenodd" opacity=".5"/><path fill="#FFBD3A" fill-rule="evenodd" d="M154.284 374.215L155.198 404.163L208.146 397.317L207.048 367.525L154.284 374.215Z" clip-rule="evenodd" opacity=".5"/><path fill="#FFB218" fill-rule="evenodd" d="M97.586 382.211L98.5046 412.159L151.453 405.314L150.355 375.521L97.586 382.211Z" clip-rule="evenodd" opacity=".5"/><path fill="#FFCA61" fill-rule="evenodd" d="M210.911 399.779L211.825 429.727L264.773 422.881L263.67 393.093L210.911 399.779Z" clip-rule="evenodd" opacity=".5"/><path fill="#FFBD3A" fill-rule="evenodd" d="M154.58 407.586L155.523 437.534L208.471 430.688L207.373 400.896L154.58 407.586Z" clip-rule="evenodd" opacity=".5"/><path fill="#FFB218" fill-rule="evenodd" d="M97.8875 415.582L98.7967 445.53L151.74 438.689L150.642 408.897L97.8875 415.582Z" clip-rule="evenodd" opacity=".5"/><path fill="#FFBD3A" fill-rule="evenodd" d="M154.962 440.339L155.881 470.287L208.824 463.442L207.731 433.649L154.962 440.339Z" clip-rule="evenodd" opacity=".5"/><path fill="#FFB218" fill-rule="evenodd" d="M98.269 448.336L99.1829 478.284L152.131 471.438L151.033 441.645L98.269 448.336Z" clip-rule="evenodd" opacity=".5"/><path fill="#FFB218" fill-rule="evenodd" d="M99.2206 481.466L100.134 511.414L153.082 504.568L151.985 474.781L99.2206 481.466Z" clip-rule="evenodd" opacity=".5"/><path fill="#5D8ECC" fill-rule="evenodd" d="M101.522 125.849L102.005 208.435L132.558 222.984L131.778 141.509L101.522 125.849Z" clip-rule="evenodd"/><path fill="#5D8ECC" fill-rule="evenodd" d="M243.757 107.778L244.241 190.363L274.794 204.912L274.014 123.437L243.757 107.778Z" clip-rule="evenodd"/><path fill="#5D8ECC" fill-rule="evenodd" d="M382.377 93.7208L382.86 176.306L413.414 190.855L412.638 109.38L382.377 93.7208Z" clip-rule="evenodd"/><path fill="#769FD1" fill-rule="evenodd" d="M131.517 141.604L202.443 133.095L203.18 215.79L132.323 223.04L131.517 141.604Z" clip-rule="evenodd"/><path fill="#769FD1" fill-rule="evenodd" d="M273.757 123.533L344.679 115.024L345.402 197.718L274.559 204.969L273.757 123.533Z" clip-rule="evenodd"/><path fill="#769FD1" fill-rule="evenodd" d="M412.377 109.476L483.312 100.967L484.035 183.661L413.17 190.907L412.377 109.476Z" clip-rule="evenodd"/><path fill="#9ABCE6" fill-rule="evenodd" d="M101.495 126.115L131.556 141.587L202.16 133.104L175.794 118.133L101.495 126.115Z" clip-rule="evenodd"/><path fill="#9ABCE6" fill-rule="evenodd" d="M243.731 108.043L273.792 123.515L344.396 115.032L318.034 100.057L243.731 108.043Z" clip-rule="evenodd"/><path fill="#9ABCE6" fill-rule="evenodd" d="M382.355 93.9864L412.416 109.458L483.02 100.976L456.658 86L382.355 93.9864Z" clip-rule="evenodd"/><path fill="#fff" fill-rule="evenodd" d="M148.205 147.691C143.558 148.154 140.032 152.084 140.073 156.754L140.445 198.943C140.492 204.313 145.189 208.454 150.523 207.829L187.927 203.445C192.516 202.908 195.958 198.992 195.903 194.372L195.408 152.852C195.345 147.556 190.756 143.452 185.486 143.977L148.205 147.691Z" clip-rule="evenodd"/><path fill="#fff" fill-rule="evenodd" d="M289.222 129.701C284.568 130.156 281.032 134.09 281.074 138.766L281.453 180.965C281.501 186.327 286.185 190.465 291.513 189.852L329.906 185.431C334.504 184.901 337.957 180.98 337.9 176.352L337.393 134.832C337.329 129.543 332.752 125.442 327.487 125.957L289.222 129.701Z" clip-rule="evenodd"/><path fill="#fff" fill-rule="evenodd" d="M430.235 114.543C425.575 114.993 422.033 118.93 422.075 123.611L422.442 163.981C422.491 169.337 427.166 173.473 432.489 172.868L469.892 168.617C474.496 168.094 477.957 164.17 477.9 159.536L477.411 119.818C477.346 114.534 472.776 110.436 467.517 110.944L430.235 114.543Z" clip-rule="evenodd"/><path fill="#000" d="M180.448 162.141L173.477 164.53C173.246 164.61 173.207 164.922 173.412 165.055L175.997 166.731L169.611 176.581L165.175 173.708C164.9 173.53 164.538 173.611 164.363 173.881L155.274 187.906C155.232 187.972 155.218 188.051 155.234 188.127C155.25 188.203 155.296 188.269 155.361 188.312L157.324 189.591C157.459 189.678 157.642 189.639 157.73 189.504L165.548 177.448L169.981 180.321C170.255 180.496 170.618 180.418 170.793 180.148L178.463 168.326L181.047 170.002C181.094 170.032 181.147 170.048 181.202 170.049C181.258 170.049 181.312 170.035 181.359 170.006C181.406 169.978 181.444 169.937 181.469 169.888C181.494 169.839 181.505 169.783 181.5 169.729L180.835 162.389C180.821 162.201 180.629 162.076 180.448 162.141Z"/><path fill="#000" d="M323.103 151.296L314.786 151.495L314.698 147.824C314.684 147.248 314.208 146.795 313.633 146.809L300.377 147.127L300.346 145.827C300.342 145.684 300.222 145.57 300.079 145.573L298.26 145.617C298.117 145.62 298.003 145.74 298.006 145.883L298.617 171.356C298.62 171.499 298.74 171.613 298.883 171.609L300.702 171.566C300.845 171.562 300.96 171.443 300.956 171.3L300.751 162.722L308.808 162.529L308.896 166.2C308.91 166.775 309.386 167.229 309.961 167.215L323.477 166.891C324.052 166.877 324.506 166.402 324.492 165.827L324.168 152.31C324.154 151.735 323.678 151.282 323.103 151.296ZM300.694 160.383L300.433 149.466L312.389 149.179L312.651 160.096L300.694 160.383ZM322.121 164.583L311.204 164.845L311.148 162.473L314.787 162.386C314.929 162.382 315.044 162.262 315.04 162.119L314.842 153.834L321.86 153.666L322.121 164.583Z"/><path fill="#000" d="M461.037 129C460.923 129 460.806 129.021 460.689 129.069L443.399 136.016H438.48C438.216 136.016 438 136.238 438 136.514V145.483C438 145.759 438.216 145.981 438.48 145.981H441.531C441.42 146.329 441.36 146.698 441.36 147.073C441.36 149.049 442.973 150.657 444.959 150.657C446.621 150.657 448.022 149.529 448.436 148.006L460.692 152.931C460.809 152.976 460.926 153 461.04 153C461.547 153 462 152.574 462 152.004V129.996C461.997 129.426 461.547 129 461.037 129ZM444.959 148.507C444.164 148.507 443.519 147.865 443.519 147.073C443.519 146.737 443.636 146.416 443.849 146.161L446.396 147.184C446.336 147.922 445.715 148.507 444.959 148.507ZM459.837 150.258L444.203 143.977L443.816 143.821H440.16V138.176H443.816L444.203 138.02L459.837 131.739V150.258Z"/></svg>
